img/svg/time-ico-48.svg

<svg width="48" height="48" viewBox="0 0 48 48" fill="none" xmlns="http://www.w3.org/2000/svg">
<path d="M29.6562 32.6836H15.5689C15.8705 31.838 16.2899 31.0836 16.802 30.3984H25.7461C26.307 30.3984 26.7617 29.9437 26.7617 29.3828C26.7617 28.8219 26.307 28.3672 25.7461 28.3672H18.789C20.4122 27.0472 22.4055 25.9844 24.4466 24.8962C26.9566 23.5579 29.552 22.1741 31.5226 20.2422C33.8205 17.9892 34.9375 15.2983 34.9375 12.0156C34.9375 11.4547 34.4828 11 33.9219 11C33.3609 11 32.9062 11.4547 32.9062 12.0156C32.9062 12.4762 32.8795 12.9155 32.8287 13.3359H18.2812C17.7203 13.3359 17.2656 13.7906 17.2656 14.3516C17.2656 14.9125 17.7203 15.3672 18.2812 15.3672H32.3498C32.0421 16.2129 31.6166 16.9675 31.0975 17.6523H22.3438C21.7828 17.6523 21.3281 18.107 21.3281 18.668C21.3281 19.2289 21.7828 19.6836 22.3438 19.6836H29.0851C27.6012 20.8773 25.8152 21.8618 23.9687 22.8488C19.5355 20.4819 15.0312 17.9797 15.0312 12.0156C15.0312 11.4547 14.5766 11 14.0156 11C13.4547 11 13 11.4547 13 12.0156C13 15.2515 14.0836 17.9092 16.3127 20.1409C17.8987 21.7287 19.9008 22.9441 21.8263 24.0007C19.8671 25.0787 17.9511 26.2516 16.4149 27.7578C14.117 30.0108 13 32.7017 13 35.9844C13 36.5453 13.4547 37 14.0156 37C14.5766 37 15.0312 36.5453 15.0312 35.9844C15.0312 35.5422 15.0562 35.1199 15.1032 34.7148H29.6562C30.2172 34.7148 30.6719 34.2601 30.6719 33.6992C30.6719 33.1383 30.2172 32.6836 29.6562 32.6836Z" fill="#E0E0E0"/>
<path d="M28.4775 25.3909C28.0052 25.0885 27.3771 25.2261 27.0745 25.6985C26.7721 26.1709 26.9097 26.799 27.3821 27.1015C30.1138 28.8508 32.9064 31.2742 32.9064 35.9843C32.9064 36.5453 33.3611 37 33.922 37C34.4829 37 34.9376 36.5453 34.9376 35.9843C34.9376 30.2618 31.4853 27.317 28.4775 25.3909Z" fill="#E0E0E0"/>
</svg>

<svg width="48" height="48" fill="none" xmlns="http://www.w3.org/2000/svg"><path d="M29.656 32.684H15.57c.301-.846.72-1.6 1.233-2.286h8.944a1.016 1.016 0 000-2.03H18.79c1.623-1.32 3.616-2.384 5.658-3.472 2.51-1.338 5.105-2.722 7.076-4.654 2.298-2.253 3.415-4.944 3.415-8.226a1.016 1.016 0 00-2.032 0c0 .46-.026.9-.077 1.32H18.28a1.016 1.016 0 000 2.031h14.07a8.663 8.663 0 01-1.253 2.285h-8.753a1.016 1.016 0 100 2.032h6.741c-1.484 1.193-3.27 2.178-5.116 3.165-4.434-2.367-8.938-4.87-8.938-10.833a1.016 1.016 0 10-2.031 0c0 3.236 1.084 5.893 3.313 8.125 1.586 1.588 3.588 2.803 5.513 3.86-1.959 1.078-3.875 2.25-5.411 3.757C14.117 30.01 13 32.702 13 35.984a1.016 1.016 0 002.031 0 11 11 0 01.072-1.27h14.553a1.016 1.016 0 100-2.03z" fill="#E0E0E0"/><path d="M28.477 25.39a1.016 1.016 0 00-1.095 1.712c2.732 1.749 5.524 4.172 5.524 8.882a1.016 1.016 0 102.032 0c0-5.722-3.453-8.667-6.46-10.593z" fill="#E0E0E0"/></svg>
